Papirus/64x64/apps/steam_icon_341800.svg

<svg width="64" height="64" version="1.1" xmlns="http://www.w3.org/2000/svg">
 <circle cx="26" cy="39" r="20" style="opacity:.2"/>
 <path d="m45 33 3-4-8-9-6 1z" style="opacity:.2"/>
 <path d="m44.727657 25.405275s3.926423 0.351386 5.36677-0.880155c1.440346-1.23154 1.230482-1.563629 1.177377-2.366603-0.0531-0.802974-0.650746-1.121234-0.654458-2.078408-0.0037-0.957175 0.382654-1.080109 0.382654-1.080109h1l1 3v-2l4 2-3-3h4l-4-3 4-3-5 1 2-7-4.255967 6.326573-1.744033-4.326573v4l-2-2 0.70573 3.554665-4.70573-1.554665 4 3 2 1s-0.365227 1.736643-0.268242 2.629613c0.09698 0.892969 0.789392 1.912277 0.757381 2.532536-0.03201 0.620259-0.137655 1.649516-2.970175 1.608163-2.83252-0.04135-3.80841-0.319249-3.80841-0.319249z" style="opacity:.2"/>
 <circle cx="26" cy="38" r="20" style="fill:#e4e4e4"/>
 <path d="m45 32 3-4-8-9-6 1z" style="fill:#e4e4e4"/>
 <path d="m44.727657 24.405275s3.926423 0.351386 5.36677-0.880155c1.440346-1.23154 1.230482-1.563629 1.177377-2.366603-0.0531-0.802974-0.650746-1.121234-0.654458-2.078408-0.0037-0.957175 0.382654-1.080109 0.382654-1.080109h1l1 3v-2l4 2-3-3h4l-4-3 4-3-5 1 2-7-4.255967 6.326573-1.744033-4.326573v4l-2-2 0.70573 3.554665-4.70573-1.554665 4 3 2 1s-0.365227 1.736643-0.268242 2.629613c0.09698 0.892969 0.789392 1.912277 0.757381 2.532536-0.03201 0.620259-0.137655 1.649516-2.970175 1.608163-2.83252-0.04135-3.80841-0.319249-3.80841-0.319249z" style="fill:#e4e4e4"/>
 <circle cx="26" cy="38" r="16" style="fill:#4f4f4f"/>
 <circle cx="26" cy="38" r="15" style="fill:#c2352a"/>
 <path d="m26 24c-8.036522 0-14.595267 6.320674-14.980469 14.261719a15 15 0 0 0 11.927735 14.386719c0.050948-0.004606 0.099073-0.006622 0.15039-0.011719 3.074917-0.305383 3.465998-0.855795 4.128906-1.34961 0.662909-0.493814 0.826172-2.035156 0.826172-2.035156s-0.062358-3.419903 0.076172-3.681641c0.13853-0.261736 1.7311-1.909077 1.652344-2.238281-0.06723-0.281032-1.573929-1.340443-1.964844-1.646484-0.390916-0.306041-2.613281-1.716797-2.613281-1.716797s-0.343039-0.138513-0.386719-0.392578 0.414063-0.488281 0.414063-0.488281 5.557516-2.453497 5.695312-2.742188c0.138568-0.290308-0.916632-0.835283-1.24414-1.617187-0.327508-0.781903 0.030541-1.956775 0.201171-2.078125 2e-6 -1e-6 1.082643-0.031415 1.585938-0.078125 0.503296-0.0467 1.338744-0.327253 1.638672-1.400391 0.29993-1.07313-1.939483-2.274687-3.650391-3.835937-0.948905-0.865905-1.176654-2.166823-1.197265-3.164063-0.747843-0.114194-1.503254-0.17165-2.259766-0.171875z" style="opacity:.2"/>
 <rect x="33" y="38.99987" width="7" height="2" ry="1" style="opacity:.2"/>
 <rect transform="rotate(-30)" x="9.2439661" y="47.926804" width="7" height="2" ry="1" style="opacity:.2"/>
 <rect x="33" y="38" width="7" height="2" ry="1" style="fill:#e4e4e4"/>
 <rect transform="rotate(-30)" x="9.7439022" y="47.06089" width="7" height="2" ry="1" style="fill:#e4e4e4"/>
 <rect transform="matrix(.8660254 .5 .5 -.8660254 0 0)" x="49.185825" y="-21.254526" width="7" height="2" ry="1" style="opacity:.2"/>
 <rect transform="matrix(.8660254 .5 .5 -.8660254 0 0)" x="48.68589" y="-20.388611" width="7" height="2" ry="1" style="fill:#e4e4e4"/>
 <path d="m26 23c-8.284271 0-15 6.715729-15 15 0.0022 5.8995 3.462399 11.249854 8.841797 13.671875 0.916847 0.06634 2.035231 0.08607 3.255859-0.03516 3.074917-0.305383 3.465998-0.855795 4.128906-1.34961 0.662908-0.493814 0.826172-2.035156 0.826172-2.035156s-0.06236-3.419904 0.07617-3.681641 1.7311-1.909077 1.652344-2.238281c-0.06723-0.281032-1.573929-1.340443-1.964844-1.646484-0.390916-0.306041-2.613281-1.716797-2.613281-1.716797s-0.343039-0.138513-0.386719-0.392578 0.414063-0.488281 0.414063-0.488281 5.557516-2.453497 5.695312-2.742188c0.138568-0.290308-0.916632-0.835283-1.24414-1.617187-0.327508-0.781903 0.03054-1.956775 0.201171-2.078125 1e-6 -1e-6 1.082643-0.03142 1.585938-0.07813 0.503296-0.0467 1.338744-0.327253 1.638672-1.400391 0.29993-1.07313-1.939481-2.274678-3.650389-3.835928-0.948905-0.865904-1.176654-2.166823-1.197265-3.164063-0.747843-0.114194-1.503254-0.17165-2.259766-0.171875z" style="fill:#e4e4e4"/>
</svg>

<?xml version="1.0" encoding="UTF-8" standalone="no"?>
<svg
   width="64"
   height="64"
   version="1.1"
   id="svg1361"
   sodipodi:docname="steam_icon_341800@64x64.svg"
   inkscape:version="1.1.1 (3bf5ae0d25, 2021-09-20, custom)"
   xmlns:inkscape="http://www.inkscape.org/namespaces/inkscape"
   xmlns:sodipodi="http://sodipodi.sourceforge.net/DTD/sodipodi-0.dtd"
   xmlns="http://www.w3.org/2000/svg"
   xmlns:svg="http://www.w3.org/2000/svg">
  <defs
     id="defs1365" />
  <sodipodi:namedview
     id="namedview1363"
     pagecolor="#505050"
     bordercolor="#eeeeee"
     borderopacity="1"
     inkscape:pageshadow="0"
     inkscape:pageopacity="0"
     inkscape:pagecheckerboard="0"
     showgrid="false"
     inkscape:zoom="6.9033235"
     inkscape:cx="44.833478"
     inkscape:cy="19.266083"
     inkscape:window-width="1920"
     inkscape:window-height="1011"
     inkscape:window-x="0"
     inkscape:window-y="32"
     inkscape:window-maximized="1"
     inkscape:current-layer="svg1361">
    <inkscape:grid
       type="xygrid"
       id="grid3029" />
  </sodipodi:namedview>
  <circle
     style="opacity:0.2;fill:#000000;fill-opacity:1;stroke-width:1.02451"
     id="circle35746"
     cx="26"
     cy="39"
     r="20" />
  <path
     style="opacity:0.2;fill:#000000;fill-opacity:1;stroke:none;stroke-width:1px;stroke-linecap:butt;stroke-linejoin:miter;stroke-opacity:1"
     d="m 45,33 3,-4 -8,-9 -6,1 z"
     id="path35748" />
  <path
     style="opacity:0.2;fill:#000000;fill-opacity:1;stroke:none;stroke-width:1px;stroke-linecap:butt;stroke-linejoin:miter;stroke-opacity:1"
     d="m 44.727657,25.405275 c 0,0 3.926423,0.351386 5.36677,-0.880155 1.440346,-1.23154 1.230482,-1.563629 1.177377,-2.366603 -0.0531,-0.802974 -0.650746,-1.121234 -0.654458,-2.078408 C 50.613646,19.122934 51,19 51,19 h 1 l 1,3 v -2 l 4,2 -3,-3 h 4 l -4,-3 4,-3 -5,1 2,-7 -4.255967,6.326573 L 49,9 v 4 L 47,11 47.70573,14.554665 43,13 l 4,3 2,1 c 0,0 -0.365227,1.736643 -0.268242,2.629613 0.09698,0.892969 0.789392,1.912277 0.757381,2.532536 -0.03201,0.620259 -0.137655,1.649516 -2.970175,1.608163 -2.83252,-0.04135 -3.80841,-0.319249 -3.80841,-0.319249 z"
     id="path35750"
     sodipodi:nodetypes="cssccccccccccccccccccccssscc" />
  <circle
     style="opacity:1;fill:#e4e4e4;stroke-width:1.02451;fill-opacity:1"
     id="path2734"
     cx="26"
     cy="38"
     r="20" />
  <path
     style="fill:#e4e4e4;stroke:none;stroke-width:1px;stroke-linecap:butt;stroke-linejoin:miter;stroke-opacity:1;fill-opacity:1;opacity:1"
     d="m 45,32 3,-4 -8,-9 -6,1 z"
     id="path3031" />
  <path
     style="opacity:1;fill:#e4e4e4;fill-opacity:1;stroke:none;stroke-width:1px;stroke-linecap:butt;stroke-linejoin:miter;stroke-opacity:1"
     d="m 44.727657,24.405275 c 0,0 3.926423,0.351386 5.36677,-0.880155 1.440346,-1.23154 1.230482,-1.563629 1.177377,-2.366603 -0.0531,-0.802974 -0.650746,-1.121234 -0.654458,-2.078408 C 50.613646,18.122934 51,18 51,18 h 1 l 1,3 v -2 l 4,2 -3,-3 h 4 l -4,-3 4,-3 -5,1 2,-7 -4.255967,6.326573 L 49,8 v 4 L 47,10 47.70573,13.554665 43,12 l 4,3 2,1 c 0,0 -0.365227,1.736643 -0.268242,2.629613 0.09698,0.892969 0.789392,1.912277 0.757381,2.532536 -0.03201,0.620259 -0.137655,1.649516 -2.970175,1.608163 -2.83252,-0.04135 -3.80841,-0.319249 -3.80841,-0.319249 z"
     id="path5759"
     sodipodi:nodetypes="cssccccccccccccccccccccssscc" />
  <circle
     style="opacity:1;fill:#4f4f4f;fill-opacity:1;stroke-width:0.819608"
     id="circle11261"
     cx="26"
     cy="38"
     r="16" />
  <circle
     style="opacity:1;fill:#c2352a;fill-opacity:1;stroke-width:0.768382"
     id="circle11281"
     cx="26"
     cy="38"
     r="15" />
  <path
     id="circle30417"
     style="opacity:0.2;fill:#000000;fill-opacity:1;stroke-width:0.768382"
     d="M 26 24 C 17.963478 24 11.404733 30.320674 11.019531 38.261719 A 15 15 0 0 0 22.947266 52.648438 C 22.998214 52.643832 23.046339 52.641816 23.097656 52.636719 C 26.172573 52.331336 26.563654 51.780924 27.226562 51.287109 C 27.889471 50.793295 28.052734 49.251953 28.052734 49.251953 C 28.052734 49.251953 27.990376 45.83205 28.128906 45.570312 C 28.267436 45.308576 29.860006 43.661235 29.78125 43.332031 C 29.71402 43.050999 28.207321 41.991588 27.816406 41.685547 C 27.42549 41.379506 25.203125 39.96875 25.203125 39.96875 C 25.203125 39.96875 24.860086 39.830237 24.816406 39.576172 C 24.772726 39.322107 25.230469 39.087891 25.230469 39.087891 C 25.230469 39.087891 30.787985 36.634394 30.925781 36.345703 C 31.064349 36.055395 30.009149 35.51042 29.681641 34.728516 C 29.354133 33.946613 29.712182 32.771741 29.882812 32.650391 C 29.882814 32.65039 30.965455 32.618976 31.46875 32.572266 C 31.972046 32.525566 32.807494 32.245013 33.107422 31.171875 C 33.407352 30.098745 31.167939 28.897188 29.457031 27.335938 C 28.508126 26.470033 28.280377 25.169115 28.259766 24.171875 C 27.511923 24.057681 26.756512 24.000225 26 24 z " />
  <rect
     style="opacity:0.2;fill:#000000;fill-opacity:1;stroke:none"
     id="rect35614"
     width="7"
     height="2"
     x="33"
     y="38.99987"
     ry="1" />
  <rect
     style="opacity:0.2;fill:#000000;fill-opacity:1;stroke:none"
     id="rect35616"
     width="7"
     height="2"
     x="9.2439661"
     y="47.926804"
     ry="1"
     transform="rotate(-30)" />
  <rect
     style="opacity:1;fill:#e4e4e4;fill-opacity:1;stroke:none"
     id="rect34557"
     width="7"
     height="2"
     x="33"
     y="38"
     ry="1" />
  <rect
     style="opacity:1;fill:#e4e4e4;fill-opacity:1;stroke:none"
     id="rect34741"
     width="7"
     height="2"
     x="9.7439022"
     y="47.06089"
     ry="1"
     transform="rotate(-30)" />
  <rect
     style="opacity:0.2;fill:#000000;fill-opacity:1;stroke:none"
     id="rect35618"
     width="7"
     height="2"
     x="49.185825"
     y="-21.254526"
     ry="1"
     transform="matrix(0.8660254,0.5,0.5,-0.8660254,0,0)" />
  <rect
     style="opacity:1;fill:#e4e4e4;fill-opacity:1;stroke:none"
     id="rect34743"
     width="7"
     height="2"
     x="48.68589"
     y="-20.388611"
     ry="1"
     transform="matrix(0.8660254,0.5,0.5,-0.8660254,0,0)" />
  <path
     id="path35519"
     style="opacity:1;fill:#e4e4e4;fill-opacity:1;stroke-width:0.768382"
     d="m 26,23 c -8.284271,0 -15,6.715729 -15,15 0.0022,5.8995 3.462399,11.249854 8.841797,13.671875 0.916847,0.06634 2.035231,0.08607 3.255859,-0.03516 3.074917,-0.305383 3.465998,-0.855795 4.128906,-1.34961 0.662908,-0.493814 0.826172,-2.035156 0.826172,-2.035156 0,0 -0.06236,-3.419904 0.07617,-3.681641 0.13853,-0.261737 1.7311,-1.909077 1.652344,-2.238281 -0.06723,-0.281032 -1.573929,-1.340443 -1.964844,-1.646484 -0.390916,-0.306041 -2.613281,-1.716797 -2.613281,-1.716797 0,0 -0.343039,-0.138513 -0.386719,-0.392578 -0.04368,-0.254065 0.414063,-0.488281 0.414063,-0.488281 0,0 5.557516,-2.453497 5.695312,-2.742188 0.138568,-0.290308 -0.916632,-0.835283 -1.24414,-1.617187 -0.327508,-0.781903 0.03054,-1.956775 0.201171,-2.078125 1e-6,-10e-7 1.082643,-0.03142 1.585938,-0.07813 0.503296,-0.0467 1.338744,-0.327253 1.638672,-1.400391 0.29993,-1.07313 -1.939481,-2.274678 -3.650389,-3.835928 C 28.508126,25.470034 28.280377,24.169115 28.259766,23.171875 27.511923,23.057681 26.756512,23.000225 26,23 Z"
     sodipodi:nodetypes="cccsscssscscsssssscc" />
</svg>
